X:1
T:Title
%%score [ ( 1 2 ) ( 3 4 ) ]
L:1/8
Q:1/4=120
M:4/4
K:C
V:1 treble nm=" " snm=" "
V:2 treble 
V:3 bass nm="Midi_74"
V:4 bass 
V:1
[K:Bb] F4 F2 G2 | G2"^Christ arose" F2 F4 | F4 E2 G2 |"^Robert Lowry\n(1826-1899)" G4 F4 | %4
w: Low in the|grave he lay,|Je- sus, my|Sa- viour,|
w: Vain- ly they|guard his bed,|Je- sus, my|Sa- viour,|
w: Death can- not|keep his prey,|Je- sus, my|Sa- viour,|
 G4 A2 B2 | B2 F2 F4 | G4 F2 =E2 | F8 |"^Chorus:""^Chorus:" B,2 B,>B, D2 F>F | B6 B>c | %10
w: wait- ing the|com- ing day,|Je- sus, my|Lord:|Up from the grave he a-|rose, as the|
w: vain- ly they|seal the dead,|Je- sus, my|Lord:|||
w: he tore the|bars a- way.|Je- sus, my|Lord:|||
 d2 B2 c>B A>G | F6 A>B | c2 c2 c>B c>d | B2 G2 F2 F>F |[M:4/4] G2 G2 G>c c>B | A2 B2 c4 | z2 F>F | %17
w: vic- tor o- ver all his|foes; he a-|rose in tri- umph from the|dark do- main, and he|lives for ev- er with his|saints to reign:|He a-|
w: |||||||
w: |||||||
 d6 c>B | e6 d>c | B2 F2 d3 c | B8 |] %21
w: rose! He a-|rose! Al- le-|lu- ia! Christ a-|rose!|
w: ||||
w: ||||
V:2
[K:Bb] D4 D2 E2 | E2 D2 D4 | C4 C2 E2 | E4 D4 | E4 F2 G2 | F2 D2 D4 | D4 C2 B,2 | A,8 | %8
 B,2 B,>B, D2 F>F | D6 D>E | F2 F2 G>G F>E | D6 C>D | E2 E2 E>D E>F | D2 E2 D2 D>D | %14
[M:4/4] E2 E2 =E>E E>G | F_E D2 E4 | z2 F>F | F6 E>D | G6 F>E | D2 D2 F3 E | D8 |] %21
V:3
[K:Bb] B,4 B,2 B,2 | B,2 B,2 B,4 | A,4 A,2 A,2 | B,4 B,4 | B,4 B,2 B,2 | B,2 B,2 B,4 | %6
w: ||||||
 B,4 A,2 G,2 | F,8 | B,,2 B,,>B,, D,2 F,>F, | F,2 F,>F, F,2 B,>B, | B,2 B,2 B,>B, B,>B, | %11
w: |||* He a- rose! * *||
 B,2 B,>B, B,2 F,>F, | A,2 A,2 A,>G, A,>A, | B,2 B,2 B,2 B,>B, | B,2 B,2 B,>B, G,>C | C2 B,2 A,4 | %16
w: * he a- rose, * *|||||
 z4 | z2 B,>B, B,2 z2 | z2 B,>B, B,2 B,>G, | F,2 B,2 B,3 A, | F,8 |] %21
w: |He a- rose!|He a- rose! * *|||
V:4
[K:Bb] B,,4 B,,2 B,,2 | B,,2 B,,2 B,,4 | F,,4 F,,2 F,,2 | B,,4 B,,4 | E,4 E,2 E,2 | D,2 B,,2 B,,4 | %6
 B,,4 C,2 C,2 | F,,8 | B,,2 B,,>B,, D,2 F,>F, | B,,2 B,,>B,, B,,2 B,,>B,, | B,,2 D,2 E,>E, E,>E, | %11
 B,,2 B,,>B,, B,,2 F,>F, | F,2 F,2 F,>F, F,>F, | G,2 E,2 B,,2 B,,>B,, | E,2 E,2 C,>C, C,>C, | %15
 F,2 G,2 F,4 | z4 | z2 B,>B, B,2 z2 | z2 E,>E, E,2 E,>E, | F,2 F,2 F,3 F, | B,,8 |] %21

